FINK
CUT[WIE HEHR IM GLASE BLINKET]
REG[Europa, Mitteleuropa, Deutschland]
KEY[F0701  08  D 4/4]
MEL[-5_  1_-1_-3_-1_  -5_.-6-5_
    2_  3_2_1_3_  2__0_
    -5_  1_-5_3_3_  2_.1-7_
    -7_  1_2_3_1-6  -5__0_
    -5_  2_-5_3_-5_  4_.32_
    2_  3_.33_3_  1_.-7-6_0_
    4__4444  4__0__
    2__2222  2__0_
    2_  3_1_-6_-4#_  -5___  -1__0_ //] >>
FCT[Geselligkeits -, Trink - Lied]
